assets/images/kvadro-img3.svg

<svg width="199" height="80" viewBox="0 0 199 80" fill="none" xmlns="http://www.w3.org/2000/svg">
<g clip-path="url(#clip0_103_169)">
<path d="M188.108 26.3486C193.183 31.085 195.809 36.9606 195.507 43.9454C195.215 50.7186 192.218 56.2145 187.058 60.5579C182.383 64.4983 176.566 66.3869 170.768 66.3869C162.624 66.3869 154.516 62.653 149.64 55.6066C147.035 51.8445 145.788 47.6376 145.678 42.9628C145.917 34.3126 149.963 27.7142 157.364 23.1893C161.333 20.79 165.889 19.5312 170.529 19.552C176.929 19.5553 183.32 21.8786 188.108 26.3486ZM172.958 56.0996C179.622 54.709 183.031 47.6409 182.686 42.6514C182.46 38.9441 181.756 36.6558 180.103 34.266C177.783 30.9118 174.283 29.1531 170.754 29.1531C168.079 29.166 165.503 30.1642 163.521 31.956C157.798 37.0156 157.247 46.7 162.397 52.3807C164.683 54.8988 167.395 56.3511 170.587 56.3511C171.384 56.3491 172.179 56.2649 172.958 56.0996Z" fill="url(#paint0_linear_103_169)"/>
<path d="M153.771 20.6696L104.357 77.0939L87.8295 77.0756L97.9779 65.1978H62.2608L66.426 58.2031L81.9382 58.2331L85.1585 33.1302L55.69 65.4393H39.5417L29.3166 47.9524L22.7224 65.899H4.04498L19.462 20.4331H39.2896L34.0093 34.9222C34.2797 34.7557 68.8066 13.8763 85.9765 3.50244C86.4773 3.89048 86.6593 4.0487 86.6593 4.0487L45.3446 46.0755L51.3829 56.8907H53.7534C53.7534 56.8907 72.6061 35.3486 78.7613 28.4554C81.7896 25.0679 85.5541 22.793 90.0582 21.917C91.3937 21.6572 92.8027 21.6805 94.1783 21.6605C96.9896 21.6239 102.661 21.6205 103.921 21.6205H104.171L98.3368 64.7815L105.088 56.8708L110.2 20.6862H119.009L116.602 43.0611L136.209 20.6696H153.771Z" fill="url(#paint1_linear_103_169)"/>
<path d="M196.47 33.18C197.919 36.6195 198.572 40.3408 198.38 44.0669C198.063 51.4447 194.874 57.7233 188.914 62.7512C183.928 66.9481 177.484 69.2597 170.768 69.2597C161.264 69.2597 152.483 64.763 147.274 57.2403C145.835 55.1666 144.722 52.8852 143.975 50.4754C143.245 48.0604 142.852 45.5565 142.807 43.0343V42.8811C142.86 40.7458 143.152 38.623 143.678 36.5525L106.517 78.9824L105.657 79.965H104.357L87.8296 79.945H81.6076L85.6426 75.2202L91.7477 68.0772H57.2092L57.2809 67.959L56.9571 68.312H55.685H39.5351H37.884L37.0493 66.8881L29.9076 54.6673L25.4185 66.8948L24.7257 68.7684H0.0350647L1.32051 64.9795L16.7376 19.5136L17.4053 17.5634H43.3948L41.9924 21.4139L39.5034 28.2421C50.5532 21.5754 72.0803 8.55852 84.4907 1.06247L86.1902 0.0349121L87.7544 1.25733C88.2653 1.65703 88.4806 1.83523 88.5173 1.86687L90.8879 3.86537L88.7143 6.07538L48.9038 46.5534L52.8286 53.5831C57.1374 48.6651 71.4376 32.3423 76.6144 26.5467C80.1636 22.5747 84.5024 20.0699 89.5106 19.1006C90.9347 18.8242 92.3487 18.8108 93.6107 18.7975H94.1383C96.9846 18.7592 102.786 18.7575 103.921 18.7575H107.462L107.704 17.8216H122.219L121.886 20.9975L120.452 34.3209L134.061 18.7809L134.919 17.7983H160.11L158.942 19.1306C162.591 17.5093 166.544 16.6761 170.539 16.6858C174.099 16.6817 177.63 17.3286 180.956 18.5943C184.339 19.8701 187.44 21.7936 190.083 24.2567C192.926 26.9148 195.078 29.9192 196.47 33.18ZM195.507 43.9453C195.809 36.9606 193.183 31.085 188.108 26.3485C183.32 21.8785 176.923 19.5553 170.531 19.5553C165.89 19.5345 161.334 20.7932 157.366 23.1925C149.963 27.7175 145.917 34.3159 145.68 42.966C145.79 47.6409 147.037 51.8477 149.641 55.6099C154.518 62.6563 162.626 66.3901 170.769 66.3901C176.567 66.3901 182.382 64.4982 187.06 60.5612C192.218 56.2144 195.215 50.7186 195.507 43.9453ZM104.357 77.0871L153.771 20.6628H136.213L116.605 43.061L119.013 20.6861H110.2L105.088 56.8706L98.3368 64.7813L104.171 21.6204H103.921C102.661 21.6204 96.9896 21.6204 94.1783 21.6604C92.8027 21.6803 91.3988 21.6604 90.0582 21.9168C85.5508 22.7895 81.7896 25.0678 78.7613 28.4553C72.6062 35.3484 53.7535 56.8906 53.7535 56.8906H51.3829L45.3446 46.0754L86.661 4.06189C86.661 4.06189 86.474 3.89535 85.9782 3.51563C68.8066 13.8895 34.2798 34.7722 34.0093 34.9354L39.2897 20.4463H19.462L4.045 65.9122H22.7224L29.3132 47.9506L39.5384 65.4375H55.6867L85.1585 33.1301L81.9382 58.2296L66.426 58.2029L62.2608 65.1977H97.9779L87.8296 77.0755L104.357 77.0871ZM79.4073 55.3551L81.1519 41.7903L68.7982 55.3334L79.4073 55.3551Z" fill="black"/>
<path d="M182.686 42.6513C183.031 47.6475 179.622 54.7089 172.958 56.0995C172.181 56.2643 171.389 56.3486 170.594 56.351C167.402 56.351 164.689 54.8988 162.404 52.3807C157.254 46.6999 157.805 37.0155 163.527 31.956C165.51 30.1641 168.086 29.1659 170.761 29.1531C174.283 29.1531 177.783 30.9118 180.11 34.2659C181.756 36.6558 182.46 38.9441 182.686 42.6513ZM172.369 53.29C177.556 52.2075 180.065 46.4301 179.816 42.8495V42.8245C179.624 39.6502 179.078 37.8366 177.738 35.8964C176.035 33.4349 173.492 32.0226 170.763 32.0226C168.818 32.0226 166.976 32.7437 165.436 34.1044C163.275 36.0146 161.93 38.9341 161.763 42.0984C161.596 45.2627 162.598 48.3154 164.539 50.4554C166.385 52.4922 168.367 53.4815 170.596 53.4815C171.192 53.4781 171.786 53.4139 172.369 53.29Z" fill="black"/>
<path d="M196.47 33.1801C195.078 29.9192 192.926 26.9148 190.074 24.2535C187.431 21.7904 184.331 19.8668 180.948 18.591C177.621 17.3253 174.091 16.6785 170.531 16.6825C166.535 16.6729 162.583 17.506 158.933 19.1273L160.102 17.795H134.907L134.049 18.7776L120.44 34.3176L121.874 20.9942L122.208 17.8183H107.697L107.455 18.7543H103.921C102.786 18.7543 96.9846 18.7543 94.1382 18.7942H93.6107C92.357 18.8075 90.9396 18.8209 89.5106 19.0973C84.5024 20.0666 80.1619 22.5714 76.6144 26.5434C71.4392 32.3391 57.1374 48.6618 52.8286 53.5798L48.9038 46.5501L88.7143 6.07543L90.8846 3.86708L88.514 1.86858C88.4773 1.83694 88.2619 1.65874 87.7511 1.25904L86.1868 0.0366211L84.4907 1.06252C72.0836 8.5569 50.5565 21.5755 39.5067 28.2571L41.9958 21.4289L43.3981 17.5785H17.3986L16.7309 19.5287L1.31383 64.9946L0.0283813 68.7834H24.7257L25.4152 66.8998L29.9042 54.6723L37.046 66.8931L37.8807 68.3171H39.5317H55.6816H56.9537L57.2776 67.964L57.2058 68.0823H91.7476L85.6426 75.2136L81.6076 79.9384H87.8295L104.357 79.9584H105.666L106.525 78.9758L143.673 36.5526C143.147 38.6231 142.855 40.7458 142.802 42.8812V43.0294C142.846 45.5515 143.24 48.0555 143.97 50.4705C144.717 52.8803 145.83 55.1617 147.269 57.2354C152.478 64.7614 161.259 69.2547 170.763 69.2547C177.479 69.2547 183.923 66.9431 188.909 62.7463C194.874 57.725 198.058 51.4397 198.375 44.0619C198.568 40.3379 197.917 36.6184 196.47 33.1801Z" stroke="#1D1D1B" stroke-width="0.42" stroke-linecap="round" stroke-linejoin="round"/>
<path d="M104.357 77.0939L87.8295 77.0756L97.9779 65.1978H62.2608L66.426 58.2031L81.9382 58.2331L85.1585 33.1302L55.69 65.4393H39.5417L29.3166 47.9524L22.7224 65.899H4.04498L19.462 20.4331H39.2896L34.0093 34.9222C34.2797 34.7557 68.8066 13.8763 85.9765 3.50244C86.4773 3.89048 86.6593 4.0487 86.6593 4.0487L45.3446 46.0755L51.3829 56.8907H53.7534C53.7534 56.8907 72.6061 35.3486 78.7613 28.4554C81.7896 25.0679 85.5541 22.793 90.0582 21.917C91.3937 21.6572 92.8027 21.6805 94.1783 21.6605C96.9896 21.6239 102.661 21.6205 103.921 21.6205H104.171L98.3368 64.7815L105.088 56.8708L110.2 20.6862H119.009L116.602 43.0611L136.209 20.6696H153.771L104.357 77.0939Z" stroke="#1D1D1B" stroke-width="0.42" stroke-linecap="round" stroke-linejoin="round"/>
<path d="M68.7899 55.3334L81.1435 41.7886L79.4073 55.3551L68.7899 55.3334Z" stroke="#1D1D1B" stroke-width="0.42" stroke-linecap="round" stroke-linejoin="round"/>
<path d="M195.507 43.9454C195.215 50.7186 192.218 56.2145 187.058 60.5579C182.383 64.4983 176.566 66.3869 170.768 66.3869C162.624 66.3869 154.516 62.653 149.64 55.6066C147.035 51.8445 145.788 47.6376 145.678 42.9628C145.917 34.3126 149.963 27.7142 157.364 23.1893C161.333 20.79 165.889 19.5312 170.529 19.552C176.928 19.552 183.318 21.8753 188.106 26.3452C193.183 31.085 195.809 36.9606 195.507 43.9454Z" stroke="#1D1D1B" stroke-width="0.42" stroke-linecap="round" stroke-linejoin="round"/>
<path d="M180.103 34.2659C177.783 30.9118 174.283 29.1531 170.754 29.1531C168.079 29.1659 165.503 30.1641 163.521 31.956C157.798 37.0155 157.247 46.6999 162.397 52.3807C164.683 54.8988 167.395 56.351 170.587 56.351C171.382 56.3486 172.174 56.2643 172.951 56.0995C179.616 54.7089 183.025 47.6409 182.679 42.6513C182.46 38.9441 181.756 36.6558 180.103 34.2659Z" stroke="#1D1D1B" stroke-width="0.42" stroke-linecap="round" stroke-linejoin="round"/>
<path d="M172.369 53.2901C171.785 53.4141 171.191 53.4783 170.594 53.4816C168.365 53.4816 166.384 52.4924 164.537 50.4555C162.598 48.3155 161.584 45.2694 161.761 42.0985C161.938 38.9275 163.274 36.0147 165.434 34.1045C166.975 32.7438 168.816 32.0227 170.761 32.0227C173.49 32.0227 176.033 33.435 177.736 35.8965C179.071 37.8367 179.622 39.6503 179.814 42.8246V42.8496C180.065 46.4302 177.556 52.2076 172.369 53.2901Z" stroke="#1D1D1B" stroke-width="0.42" stroke-linecap="round" stroke-linejoin="round"/>
</g>
<defs>
<linearGradient id="paint0_linear_103_169" x1="170.604" y1="65.9705" x2="170.604" y2="26.9448" gradientUnits="userSpaceOnUse">
<stop stop-color="#E63A2E"/>
<stop offset="1" stop-color="#ED7E0B"/>
</linearGradient>
<linearGradient id="paint1_linear_103_169" x1="75.5426" y1="71.0668" x2="81.8615" y2="18.6125" gradientUnits="userSpaceOnUse">
<stop stop-color="#E63A2E"/>
<stop offset="1" stop-color="#ED7E0B"/>
</linearGradient>
<clipPath id="clip0_103_169">
<rect width="198.442" height="80" fill="white"/>
</clipPath>
</defs>
</svg>

<svg width="199" height="80" fill="none" xmlns="http://www.w3.org/2000/svg"><g clip-path="url(#a)"><path d="M188.108 26.349c5.075 4.736 7.701 10.612 7.399 17.596-.292 6.774-3.289 12.27-8.449 16.613-4.675 3.94-10.492 5.829-16.29 5.829-8.144 0-16.252-3.734-21.128-10.78-2.605-3.763-3.852-7.97-3.962-12.644.239-8.65 4.285-15.249 11.686-19.774a25.231 25.231 0 0 1 13.165-3.637c6.4.003 12.791 2.327 17.579 6.797Zm-15.15 29.75c6.664-1.39 10.073-8.458 9.728-13.448-.226-3.707-.93-5.995-2.583-8.385-2.32-3.354-5.82-5.113-9.349-5.113a10.864 10.864 0 0 0-7.233 2.803c-5.723 5.06-6.274 14.744-1.124 20.425 2.286 2.518 4.998 3.97 8.19 3.97a11.565 11.565 0 0 0 2.371-.251Z" fill="url(#b)"/><path d="m153.771 20.67-49.414 56.424-16.528-.018 10.149-11.878H62.26l4.165-6.995 15.512.03 3.22-25.103L55.69 65.44H39.542L29.317 47.951 22.722 65.9H4.045l15.417-45.466H39.29l-5.28 14.49c.27-.167 34.797-21.047 51.967-31.42.5.387.682.546.682.546L45.345 46.075l6.038 10.816h2.37s18.853-21.542 25.008-28.436c3.029-3.387 6.793-5.662 11.297-6.538 1.336-.26 2.745-.237 4.12-.257 2.812-.036 8.483-.04 9.743-.04h.25l-5.834 43.161 6.751-7.91 5.112-36.185h8.809l-2.407 22.375 19.607-22.391h17.562Z" fill="url(#c)"/><path d="M196.47 33.18a24.759 24.759 0 0 1 1.91 10.887c-.317 7.378-3.506 13.656-9.466 18.684-4.986 4.197-11.43 6.509-18.146 6.509-9.504 0-18.285-4.497-23.494-12.02a24.69 24.69 0 0 1-3.299-6.765 27.406 27.406 0 0 1-1.168-7.44v-.154c.053-2.135.345-4.258.871-6.328l-37.161 42.43-.86.982h-1.3l-16.527-.02h-6.222l4.035-4.725 6.105-7.143H57.209l.072-.118-.324.353H37.884l-.835-1.424-7.141-12.22-4.49 12.227-.692 1.873H.036L1.32 64.98l15.417-45.466.667-1.95h25.99l-1.403 3.85-2.489 6.828C50.553 21.575 72.08 8.56 84.491 1.062l1.7-1.027 1.563 1.222c.511.4.727.578.763.61l2.37 1.998-2.173 2.21-39.81 40.478 3.925 7.03c4.308-4.918 18.609-21.24 23.785-27.036 3.55-3.972 7.888-6.477 12.897-7.446 1.424-.277 2.838-.29 4.1-.303h.527c2.847-.039 8.648-.04 9.783-.04h3.541l.242-.936h14.515l-.333 3.175-1.434 13.324 13.609-15.54.858-.983h25.191l-1.168 1.333a28.396 28.396 0 0 1 11.597-2.445c3.56-.004 7.091.643 10.417 1.908a27.75 27.75 0 0 1 9.127 5.663c2.843 2.658 4.995 5.662 6.387 8.923Zm-.963 10.765c.302-6.984-2.324-12.86-7.399-17.596-4.788-4.47-11.185-6.794-17.577-6.794a25.226 25.226 0 0 0-13.165 3.637c-7.403 4.526-11.449 11.124-11.686 19.774.11 4.675 1.357 8.882 3.961 12.644 4.877 7.046 12.985 10.78 21.128 10.78 5.798 0 11.613-1.892 16.291-5.829 5.158-4.347 8.155-9.842 8.447-16.616Zm-91.15 33.142 49.414-56.424h-17.558L116.605 43.06l2.408-22.375H110.2l-5.112 36.185-6.751 7.91 5.834-43.16h-.25c-1.26 0-6.931 0-9.743.04-1.375.02-2.78 0-4.12.256-4.507.872-8.268 3.15-11.297 6.538-6.155 6.893-25.007 28.436-25.007 28.436h-2.371l-6.038-10.816L86.66 4.062s-.187-.167-.683-.546C68.807 13.889 34.28 34.772 34.01 34.936l5.28-14.49H19.463L4.045 65.912h18.677l6.591-17.961 10.225 17.486h16.149L85.159 33.13l-3.22 25.1-15.513-.027-4.165 6.995h35.717L87.83 77.076l16.527.011Zm-24.95-21.732 1.745-13.565-12.354 13.543 10.61.022Z" fill="#000"/><path d="M182.686 42.651c.345 4.996-3.064 12.058-9.728 13.448a11.56 11.56 0 0 1-2.364.252c-3.192 0-5.905-1.452-8.19-3.97-5.15-5.681-4.599-15.365 1.123-20.425a10.868 10.868 0 0 1 7.234-2.803c3.522 0 7.022 1.759 9.349 5.113 1.646 2.39 2.35 4.678 2.576 8.385ZM172.369 53.29c5.187-1.082 7.696-6.86 7.447-10.44v-.026c-.192-3.174-.738-4.987-2.078-6.928-1.703-2.461-4.246-3.873-6.975-3.873-1.945 0-3.787.72-5.327 2.081-2.161 1.91-3.506 4.83-3.673 7.994-.167 3.165.835 6.217 2.776 8.357 1.846 2.037 3.828 3.026 6.057 3.026a8.77 8.77 0 0 0 1.773-.191Z" fill="#000"/><path d="M196.47 33.18c-1.392-3.26-3.544-6.265-6.396-8.927a27.745 27.745 0 0 0-9.126-5.662 29.203 29.203 0 0 0-10.417-1.909 28.402 28.402 0 0 0-11.598 2.445l1.169-1.332h-25.195l-.858.983-13.609 15.54 1.434-13.324.334-3.176h-14.511l-.242.936h-3.534c-1.135 0-6.936 0-9.783.04h-.527c-1.254.014-2.671.027-4.1.303-5.009.97-9.35 3.474-12.897 7.446C71.44 32.34 57.137 48.662 52.83 53.58l-3.925-7.03 39.81-40.475 2.17-2.208-2.37-1.998c-.037-.032-.252-.21-.763-.61L86.187.037 84.49 1.063C72.084 8.557 50.557 21.576 39.507 28.257l2.489-6.828 1.402-3.85h-26l-.667 1.95L1.314 64.995.028 68.783h24.698l.69-1.883 4.488-12.228 7.142 12.221.835 1.424H56.954l.324-.353-.072.118h34.542l-6.105 7.132-4.035 4.724h6.221l16.528.02h1.309l.859-.982 37.148-42.423a28.582 28.582 0 0 0-.871 6.328v.148a27.368 27.368 0 0 0 1.168 7.441 24.69 24.69 0 0 0 3.299 6.765c5.209 7.526 13.99 12.02 23.494 12.02 6.716 0 13.16-2.312 18.146-6.509 5.965-5.021 9.149-11.306 9.466-18.684a24.75 24.75 0 0 0-1.905-10.882Z" stroke="#1D1D1B" stroke-width=".42" stroke-linecap="round" stroke-linejoin="round"/><path d="m104.357 77.094-16.528-.018 10.149-11.878H62.26l4.165-6.995 15.512.03 3.22-25.103L55.69 65.44H39.542L29.317 47.951 22.722 65.9H4.045l15.417-45.466H39.29l-5.28 14.49c.27-.167 34.797-21.047 51.967-31.42.5.387.682.546.682.546L45.345 46.075l6.038 10.816h2.37s18.853-21.542 25.008-28.436c3.029-3.387 6.793-5.662 11.297-6.538 1.336-.26 2.745-.237 4.12-.257 2.812-.036 8.483-.04 9.743-.04h.25l-5.834 43.161 6.751-7.91 5.112-36.185h8.809l-2.407 22.375 19.607-22.391h17.562l-49.414 56.424Z" stroke="#1D1D1B" stroke-width=".42" stroke-linecap="round" stroke-linejoin="round"/><path d="M68.79 55.333 81.143 41.79l-1.736 13.566-10.617-.022ZM195.507 43.945c-.292 6.774-3.289 12.27-8.449 16.613-4.675 3.94-10.492 5.829-16.29 5.829-8.144 0-16.252-3.734-21.128-10.78-2.605-3.763-3.852-7.97-3.962-12.644.239-8.65 4.285-15.249 11.686-19.774a25.231 25.231 0 0 1 13.165-3.637c6.399 0 12.789 2.323 17.577 6.793 5.077 4.74 7.703 10.616 7.401 17.6Z" stroke="#1D1D1B" stroke-width=".42" stroke-linecap="round" stroke-linejoin="round"/><path d="M180.103 34.266c-2.32-3.354-5.82-5.113-9.349-5.113a10.863 10.863 0 0 0-7.233 2.803c-5.723 5.06-6.274 14.744-1.124 20.425 2.286 2.518 4.998 3.97 8.19 3.97a11.56 11.56 0 0 0 2.364-.252c6.665-1.39 10.074-8.458 9.728-13.448-.219-3.707-.923-5.995-2.576-8.385Z" stroke="#1D1D1B" stroke-width=".42" stroke-linecap="round" stroke-linejoin="round"/><path d="M172.369 53.29a8.774 8.774 0 0 1-1.775.192c-2.229 0-4.21-.99-6.057-3.026-1.939-2.14-2.953-5.187-2.776-8.358.177-3.17 1.513-6.083 3.673-7.993 1.541-1.361 3.382-2.082 5.327-2.082 2.729 0 5.272 1.412 6.975 3.873 1.335 1.94 1.886 3.754 2.078 6.929v.025c.251 3.58-2.258 9.358-7.445 10.44Z" stroke="#1D1D1B" stroke-width=".42" stroke-linecap="round" stroke-linejoin="round"/></g><defs><linearGradient id="b" x1="170.604" y1="65.971" x2="170.604" y2="26.945" gradientUnits="userSpaceOnUse"><stop stop-color="#E63A2E"/><stop offset="1" stop-color="#ED7E0B"/></linearGradient><linearGradient id="c" x1="75.543" y1="71.067" x2="81.862" y2="18.613" gradientUnits="userSpaceOnUse"><stop stop-color="#E63A2E"/><stop offset="1" stop-color="#ED7E0B"/></linearGradient><clipPath id="a"><path fill="#fff" d="M0 0h198.442v80H0z"/></clipPath></defs></svg>
